X:1
T:Title
%%score 1 { 2 | 3 }
L:1/8
Q:1/4=90
M:6/8
K:Bb
V:1 treble nm="Grand Piano, Soprano"
V:2 bass nm="Choir Pad, Whiter Than Snow Braswell"
V:3 bass 
V:1
 F[FB][FB] [FB][GB][FA] | [EG][DF][DB] [B,D] [DF]2 | [DF][CE][DF] [EG][DF][DB] | %3
w: By~James~Braswell * * * * *|||
 [B,D] [A,C]2- [A,C]2- [A,C]/ z/ | [A,C][B,D][B,D] [B,D][B,D][B,D] | [B,D][B,E][B,F] [EG] [DF]2 | %6
w: |||
 [B,D]CD EF[EG] | [CA] [DB]2- [DB]2- [DB]/ z/ | z [Fd]2- [Fd] [DB]2 | [EG] [DF]2- [DF]2- [DF]/ z/ | %10
w: ||||
 z [FB]2- [FB][DB][DB] | [DB] [Fc]2- [Fc]2- [Fc]/ z/ | z [Fd][Fd] [Fd][Ec][Ec] | %13
w: |||
 [Ec][DB][GB] [GB] [^FA]2- | [FA]G[GB] [EG][D=F][Fd] | [Ec] [DB]2- [DB]3- | [DB]3 z3 |] %17
w: ||||
V:2
 F,DD DEE | B,B,F, F, B,2 | B,A,A, A,B,F, | F, F,2- F,2- F,/ z/ | F,F,F, F,F,F, | F,G,A, B, B,2 | %6
 F,C,D, E,F,G, | A, B,2- B,2- B,/ z/ | z B,2- B,F,F, | B, B,2- B,2- B,/ z/ | z D2- D B,2 | %11
 B, A,2- A,2- A,/ z/ | z B,B, B,A,A, | A,B,[K:treble]D D D2 | CB,[K:bass]B, B,B,B, | A, B,2- B,3- | %16
 B,3 z3 |] %17
V:3
 z B,,B,, B,,E,E, | E,B,,B,, B,, B,,2 | B,,F,F, F,B,,B,, | .D,3 z3 | z B,,B,, B,,B,,B,, | %5
 B,,E,E, E, B,,2 | .B,,3 z2 E, | C, B,,2- B,,2- B,,/ z/ | z B,,2- B,,B,,B,, | %9
 B,, B,,2- B,,2- B,,/ z/ | z F,2- F, G,2 | G, F,2- F,2- F,/ z/ | z3 z F,F, | F,G,G, G, D,2- | %14
 D,E,E, E,F,F, | F, B,,2- B,,3- | B,,3 z3 |] %17

